src/assets/outline/Crown1.svg

<svg width="24" height="24" viewBox="0 0 24 24"  xmlns="http://www.w3.org/2000/svg">
<path d="M16.6999 19.7305H7.29994C6.55994 19.7305 5.80994 19.2005 5.55994 18.5105L1.41993 6.92047C0.909935 5.46047 1.27993 4.79047 1.67993 4.49047C2.07993 4.19047 2.82994 4.01047 4.08994 4.91047L7.98993 7.70047C8.10993 7.77047 8.21994 7.80047 8.29994 7.78047C8.38994 7.75047 8.45994 7.67047 8.50994 7.53047L10.2699 2.84047C10.7999 1.44047 11.5799 1.23047 11.9999 1.23047C12.4199 1.23047 13.1999 1.44047 13.7299 2.84047L15.4899 7.53047C15.5399 7.66047 15.6099 7.75047 15.6999 7.78047C15.7899 7.81047 15.8999 7.78047 16.0099 7.69047L19.6699 5.08047C21.0099 4.12047 21.7899 4.31047 22.2199 4.62047C22.6399 4.94047 23.0299 5.65047 22.4799 7.20047L18.4399 18.5105C18.1899 19.2005 17.4399 19.7305 16.6999 19.7305ZM2.67994 5.81047C2.69994 5.95047 2.73993 6.15047 2.83993 6.41047L6.97994 18.0005C7.01994 18.1005 7.19994 18.2305 7.29994 18.2305H16.6999C16.8099 18.2305 16.9899 18.1005 17.0199 18.0005L21.0599 6.70047C21.1999 6.32047 21.2399 6.06047 21.2499 5.91047C21.0999 5.96047 20.8699 6.07047 20.5399 6.31047L16.8799 8.92047C16.3799 9.27047 15.7899 9.38047 15.2599 9.22047C14.7299 9.06047 14.2999 8.64047 14.0799 8.07047L12.3199 3.38047C12.1899 3.03047 12.0699 2.86047 11.9999 2.78047C11.9299 2.86047 11.8099 3.03047 11.6799 3.37047L9.91994 8.06047C9.70994 8.63047 9.27993 9.05047 8.73993 9.21047C8.20994 9.37047 7.60993 9.26047 7.11994 8.91047L3.21994 6.12047C2.98994 5.96047 2.80994 5.86047 2.67994 5.81047Z" />
<path d="M17.5 22.75H6.5C6.09 22.75 5.75 22.41 5.75 22C5.75 21.59 6.09 21.25 6.5 21.25H17.5C17.91 21.25 18.25 21.59 18.25 22C18.25 22.41 17.91 22.75 17.5 22.75Z" />
<path d="M14.5 14.75H9.5C9.09 14.75 8.75 14.41 8.75 14C8.75 13.59 9.09 13.25 9.5 13.25H14.5C14.91 13.25 15.25 13.59 15.25 14C15.25 14.41 14.91 14.75 14.5 14.75Z" />
</svg>

<?xml version="1.0" encoding="UTF-8"?>
<svg width="24" height="24" viewBox="0 0 24 24" xmlns="http://www.w3.org/2000/svg">
 <path d="m16.7 19.73h-9.4c-0.74 0-1.49-0.53-1.74-1.22l-4.14-11.59c-0.51-1.46-0.14-2.13 0.26-2.43s1.15-0.48 2.41 0.42l3.9 2.79c0.12 0.07 0.23001 0.1 0.31001 0.08 0.09-0.03 0.16-0.11 0.21-0.25l1.76-4.69c0.53-1.4 1.31-1.61 1.73-1.61s1.2 0.21 1.73 1.61l1.76 4.69c0.05 0.13 0.12 0.22 0.21 0.25s0.2 0 0.31-0.09l3.66-2.61c1.34-0.96 2.12-0.77 2.55-0.46 0.42 0.32 0.81 1.03 0.26 2.58l-4.04 11.31c-0.25 0.69-1 1.22-1.74 1.22zm-14.02-13.92c0.02 0.14 0.05999 0.34 0.15999 0.6l4.14 11.59c0.04 0.1 0.22 0.23 0.32 0.23h9.4c0.11 0 0.29-0.13 0.32-0.23l4.04-11.3c0.14-0.38 0.18-0.64 0.19-0.79-0.15 0.05-0.38 0.16-0.71 0.4l-3.66 2.61c-0.5 0.35-1.09 0.46-1.62 0.3s-0.96-0.58-1.18-1.15l-1.76-4.69c-0.13-0.35-0.25-0.52-0.32-0.6-0.07 0.08-0.19 0.25-0.32 0.59l-1.76 4.69c-0.21 0.57-0.64001 0.99-1.18 1.15-0.52999 0.16-1.13 0.05-1.62-0.3l-3.9-2.79c-0.23-0.16-0.41-0.26-0.54-0.31z"/>
 <path d="m17.5 22.75h-11c-0.41 0-0.75-0.34-0.75-0.75s0.34-0.75 0.75-0.75h11c0.41 0 0.75 0.34 0.75 0.75s-0.34 0.75-0.75 0.75z"/>
 <path d="m14.5 14.75h-5c-0.41 0-0.75-0.34-0.75-0.75s0.34-0.75 0.75-0.75h5c0.41 0 0.75 0.34 0.75 0.75s-0.34 0.75-0.75 0.75z"/>
</svg>
